Sources/FrostedUI/Resources/Icons.xcassets/discordFilled32.imageset/discord-filled-32.svg

<svg width="32" height="32" viewBox="0 0 32 32" fill="none" xmlns="http://www.w3.org/2000/svg" data-fui-icon="true">
  <path
    d="M20.1294 4.8252C22.2193 5.18063 24.254 5.81034 26.1812 6.69727C29.5012 11.5772 31.1515 17.0812 30.5425 23.4316C28.2992 25.0989 25.7868 26.3652 23.1157 27.1748C22.5144 26.3636 21.9822 25.5023 21.5259 24.6006C22.3953 24.2739 23.2345 23.8707 24.0337 23.3965C23.8261 23.255 23.6202 23.0973 23.4194 22.9326C21.0985 24.0298 18.5653 24.5986 16.0005 24.5986C13.4354 24.5986 10.9017 24.0298 8.58057 22.9326C8.38215 23.0857 8.17627 23.2434 7.96631 23.3965C8.76406 23.87 9.60233 24.2718 10.4702 24.5977C10.0133 25.5001 9.48132 26.3623 8.88037 27.1748C6.21153 26.3619 3.7004 25.0946 1.45752 23.4287C0.938447 17.9528 1.9774 12.3983 5.80713 6.70215C7.73629 5.81502 9.77253 5.18365 11.8638 4.8252C12.1496 5.33906 12.4076 5.868 12.6382 6.40918C14.8643 6.07195 17.1288 6.07195 19.355 6.40918C19.5855 5.86793 19.8435 5.33899 20.1294 4.8252ZM11.1226 14.1631C9.63912 14.1632 8.48584 15.4947 8.48584 17.1182C8.48599 18.7416 9.68095 20.0615 11.1274 20.0615C12.6016 20.0614 13.7415 18.7416 13.7671 17.1182C13.7924 15.4947 12.6061 14.1631 11.1226 14.1631ZM20.8726 14.1631C19.3868 14.1632 18.2339 15.4948 18.2339 17.1182C18.234 18.7415 19.4238 20.0614 20.8726 20.0615C22.3467 20.0615 23.4848 18.7416 23.5103 17.1182C23.5357 15.4947 22.3584 14.1631 20.8726 14.1631Z"
    fill="currentColor"
  />
</svg>

<svg xmlns="http://www.w3.org/2000/svg" width="32" height="32" fill="none" data-fui-icon="true" viewBox="0 0 32 32"><path fill="currentColor" d="M20.13 4.825a24.2 24.2 0 0 1 6.051 1.872c3.32 4.88 4.97 10.384 4.361 16.735a24.2 24.2 0 0 1-7.426 3.743 18 18 0 0 1-1.59-2.574c.87-.327 1.709-.73 2.508-1.204a9 9 0 0 1-.615-.464 17.36 17.36 0 0 1-14.838 0c-.199.153-.405.31-.615.463.798.474 1.636.876 2.504 1.202a18 18 0 0 1-1.59 2.577 24.4 24.4 0 0 1-7.422-3.746c-.52-5.476.52-11.03 4.35-16.727a24.3 24.3 0 0 1 6.056-1.877q.429.772.774 1.584a22.4 22.4 0 0 1 6.717 0q.345-.812.774-1.584m-9.007 9.338c-1.484 0-2.637 1.332-2.637 2.955 0 1.624 1.195 2.944 2.641 2.944 1.475 0 2.614-1.32 2.64-2.944.025-1.623-1.16-2.955-2.644-2.955m9.75 0c-1.486 0-2.64 1.332-2.64 2.955.001 1.624 1.19 2.943 2.64 2.944 1.474 0 2.612-1.32 2.637-2.944.026-1.623-1.152-2.955-2.637-2.955"/></svg>
